flaticon/stationery/pen-2.svg

<svg xmlns="http://www.w3.org/2000/svg" width="32" height="32" viewBox="0 0 24 24">
    <path d="M 23.851562 2.203125 L 21.796875 0.148438 C 21.597656 -0.0507812 21.273438 -0.0507812 21.074219 0.148438 L 18.835938 2.386719 L 18.066406 1.617188 C 17.875 1.425781 17.535156 1.425781 17.34375 1.617188 L 15.824219 3.136719 L 14.542969 1.855469 C 14.351562 1.664062 14.011719 1.664062 13.820312 1.855469 L 6.277344 9.394531 L 7 10.117188 L 14.183594 2.9375 L 15.101562 3.859375 L 13.582031 5.378906 C 13.382812 5.578125 13.382812 5.898438 13.582031 6.097656 L 13.835938 6.355469 L 2.929688 17.257812 C 2.917969 17.269531 2.839844 17.375 2.828125 17.398438 L 0.0507812 23.257812 C -0.0429688 23.453125 -0.0078125 23.691406 0.152344 23.839844 C 0.289062 23.96875 0.492188 24.070312 0.730469 23.9375 L 6.59375 21.160156 C 6.597656 21.160156 6.722656 21.070312 6.734375 21.058594 L 17.640625 10.15625 L 17.898438 10.414062 C 18.125 10.636719 18.425781 10.617188 18.621094 10.414062 L 22.382812 6.652344 C 22.5625 6.523438 22.617188 6.144531 22.382812 5.929688 L 21.613281 5.160156 L 23.851562 2.921875 C 24.050781 2.722656 24.050781 2.402344 23.851562 2.203125 Z M 1.585938 22.402344 L 3.441406 18.488281 L 5.5 20.546875 Z M 6.375 19.976562 L 4.011719 17.617188 L 14.558594 7.078125 L 16.921875 9.4375 Z M 18.257812 9.332031 L 14.664062 5.738281 L 17.703125 2.699219 L 21.300781 6.292969 Z M 20.890625 4.441406 L 19.558594 3.109375 L 21.4375 1.230469 L 22.765625 2.5625 Z M 20.890625 4.441406"/>
</svg>

<svg xmlns="http://www.w3.org/2000/svg" width="32" height="32" viewBox="0 0 24 24">
    <path d="M23.852 2.203L21.797.148c-.2-.199-.524-.199-.723 0l-2.238 2.239-.77-.77a.527.527 0 0 0-.722 0l-1.52 1.52-1.281-1.282a.527.527 0 0 0-.723 0l-7.543 7.54.723.722 7.184-7.18.918.922-1.52 1.52c-.2.2-.2.52 0 .719l.254.257L2.93 17.258a1.46 1.46 0 0 0-.102.14l-2.777 5.86a.5.5 0 0 0 .101.582c.137.129.34.23.578.098l5.864-2.778c.004 0 .129-.09.14-.101l10.907-10.903.257.258c.227.223.528.203.723 0l3.762-3.762c.18-.129.234-.507 0-.722l-.77-.77 2.239-2.238c.199-.2.199-.52 0-.719zm-22.266 20.2l1.855-3.915L5.5 20.547zm4.789-2.426l-2.363-2.36L14.559 7.078l2.363 2.36zM18.258 9.332l-3.594-3.594 3.04-3.039L21.3 6.293zm2.633-4.89l-1.332-1.333 1.878-1.879 1.329 1.333zm0 0"/>
</svg>
